packages/foundations/assets/icons/functional/images/maps/parking_14.svg

<svg width="14" height="14" viewBox="0 0 14 14" fill="none" xmlns="http://www.w3.org/2000/svg">
<g clip-path="url(#clip0_186_104)">
<path fill-rule="evenodd" clip-rule="evenodd" d="M11.3077 1.25647C12.1007 1.25647 12.7436 1.89934 12.7436 2.69237V11.3078C12.7436 12.1008 12.1007 12.7436 11.3077 12.7436H2.69231C1.89928 12.7436 1.25641 12.1008 1.25641 11.3078V2.69237C1.25641 1.89934 1.89928 1.25647 2.69231 1.25647H11.3077ZM11.3077 2.69237H2.69231V11.3078H11.3077V2.69237ZM7.25616 4.35585C7.8772 4.35585 8.35176 4.49859 8.67981 4.78407C9.00786 5.06956 9.17189 5.48526 9.17189 6.03118C9.17189 6.59212 9.0016 7.0191 8.66103 7.31209C8.35141 7.57845 7.91142 7.72374 7.34103 7.74795C6.91432 7.74991 6.58301 7.73309 6.34708 7.69749L6.34711 9.02103C6.34711 9.35918 6.07299 9.6333 5.73484 9.6333C5.4227 9.6333 5.12256 9.38732 5.12256 9.02102V4.89431C5.12256 4.62171 5.33789 4.33375 5.66102 4.35585C6.1927 4.35428 6.72441 4.35428 7.25616 4.35585ZM7.15849 5.24985H6.34708V6.8741C6.54528 6.90315 6.7832 6.91767 7.06083 6.91767C7.38637 6.91767 7.62052 6.85006 7.76326 6.71483C7.906 6.5796 7.97737 6.36174 7.97737 6.06123C7.97737 5.81224 7.93103 5.58063 7.7858 5.43768C7.6297 5.29391 7.40748 5.24985 7.15849 5.24985Z" fill="#1A1C1F"/>
</g>
<defs>
<clipPath id="clip0_186_104">
<rect width="14" height="14" fill="white"/>
</clipPath>
</defs>
</svg>

<svg xmlns="http://www.w3.org/2000/svg" width="14" height="14" fill="none"><g clip-path="url(#a)"><path fill="#1A1C1F" fill-rule="evenodd" d="M11.308 1.256c.793 0 1.436.643 1.436 1.436v8.616c0 .793-.643 1.436-1.436 1.436H2.692a1.436 1.436 0 0 1-1.436-1.436V2.692c0-.793.643-1.436 1.436-1.436zm0 1.436H2.692v8.616h8.616zM7.256 4.356q.932 0 1.424.428t.492 1.247q0 .842-.511 1.281-.465.4-1.32.436a7 7 0 0 1-.994-.05V9.02a.612.612 0 1 1-1.224 0V4.894c0-.272.215-.56.538-.538q.797-.003 1.595 0m-.098.894h-.81v1.624q.296.045.713.044.488 0 .702-.203.214-.202.214-.654c0-.249-.046-.48-.191-.623-.156-.144-.379-.188-.628-.188" clip-rule="evenodd"/></g><defs><clipPath id="a"><path fill="#fff" d="M0 0h14v14H0z"/></clipPath></defs></svg>
